.local/share/icons/Gruvbox-Plus-Dark/panel/22/qtox-busy.svg

<svg xmlns="http://www.w3.org/2000/svg" width="22" height="22" version="1.1">
 <defs>
  <style id="current-color-scheme" type="text/css">
   .ColorScheme-Text { color:#ebdbb2; } .ColorScheme-Highlight { color:#458588; }
  </style>
 </defs>
 <g>
  <path style="fill:currentColor" class="ColorScheme-Text" d="m 11,10 c 2.209116,5.5e-5 3.999945,1.790884 4,4 -5.5e-5,2.209116 -1.790884,3.999945 -4,4 -2.2091161,-5.5e-5 -3.9999448,-1.790884 -4,-4 5.52e-5,-2.209116 1.7908839,-3.999945 4,-4 z m 0,-5 c 1.1052,0 2,0.8955 2,2 0,0.4715 -0.102,0.8423 -0.236,1.1074 C 12.631,8.3725 12.338,8.7271 12,9 11.67,9.2671 11,9.6 11,9.6 11,9.6 11.303,9.2357 11.428,8.95 11.287,8.9813 11.145,9 11,9 9.8956,9.001 9,8.1045 9,7 9,5.8955 9.8948,5 11,5 Z M 11,3 C 8.7911,3 7,4.7911 7,7 L 7,9 5,9 C 4.4476649,8.9998784 3.9998784,9.4476649 4,10 l 0,8 c -1.216e-4,0.552335 0.4476649,1.000122 1,1 l 12,0 c 0.552335,1.22e-4 1.000122,-0.447665 1,-1 l 0,-8 C 18.000122,9.4476649 17.552335,8.9998784 17,9 L 15,9 15,7 C 15,4.7911 13.209,3 11,3 Z M 8,13.000326 8,15 l 6,0 0,-1.999674 -6,0 z"/>
 </g>
</svg>

<svg width="22" height="22" version="1.1" xmlns="http://www.w3.org/2000/svg">
  <defs>
    <style id="current-color-scheme" type="text/css">.ColorScheme-Text { color:#ebdbb2; } .ColorScheme-Highlight { color:#458588; } .ColorScheme-NeutralText { color:#fe8019; } .ColorScheme-PositiveText { color:#689d6a; } .ColorScheme-NegativeText { color:#fb4934; }</style>
  </defs>
  <path class="ColorScheme-Text" d="m11 10c2.209 5.5e-5 4 1.791 4 4-5.5e-5 2.209-1.791 4-4 4-2.209-5.5e-5 -4-1.791-4-4 5.52e-5 -2.209 1.791-4 4-4zm0-5c1.105 0 2 0.8955 2 2 0 0.4715-0.102 0.8423-0.236 1.107-0.133 0.2651-0.426 0.6197-0.764 0.8926-0.33 0.2671-1 0.6-1 0.6s0.303-0.3643 0.428-0.65c-0.141 0.0313-0.283 0.05-0.428 0.05-1.104 1e-3 -2-0.8955-2-2s0.8948-2 2-2zm0-2c-2.209 0-4 1.791-4 4v2h-2c-0.5523-1.216e-4 -1 0.4477-1 1v8c-1.216e-4 0.5523 0.4477 1 1 1h12c0.5523 1.22e-4 1-0.4477 1-1v-8c1.22e-4 -0.5523-0.4477-1-1-1h-2v-2c0-2.209-1.791-4-4-4zm-3 10v2h6v-2h-6z" fill="currentColor"/>
</svg>
